X: 11
T:Hangover Blues
M:12/8
L:1/8
Q:80
C:Rick Steel
K:DDor
A a2g|"D"f2d- d3 z2A B2d|f2d- d3 z2A B2d|
f2f f2f f2A B2d|d3- d3 z2A B2d|!
"G"f2d- d3 z2A B2d|f2d- d3 z3 z3|
zff f2f f2A B2d|"D"d3 z3 z2a a2a|
"A"a2a- a3 zaa a2g|!
"G"f2d- d3 z2A B2d|
"D"a3 g3 f2d- d3|a3 g2a f2d- d3|
a2a g2a f2d c2f-|d2"A"z z3 z2:||
